X:1324
T:Bringebærslåtten
T:Reinlendar
Z:[[http://www.bluerose.karenlmyers.org/IncipitsSchottis26.html|Karen Myers (#1619)]]
Z:Upptecknad 2/2009
M:2/4
L:1/16
R:[[!Schottis]] / [[!Reinlendar]]
O:Norge
K:D
fedc d2F2 | BAGF G2E2 | e2ed c2cB | A2AG F2>A2 | fedc d2F2 | BAGF G2E2 |
e2ed c2Bc | d2d2 d2>A2 :: A2f2 fedc | B2g2 gfed | c2c2 B2B2 |
^GABA F2>A2 | A2f2 fedc | B2g2 gfed | c2c2 cABc | d2d2 d4 :|
(:musicend:)

(:music:)
